!!!OTL: EINSAM WANDL ICH
!!!ARE: Europa, Mitteleuropa, Deutschland
!!!SCT: F1076
!!!YEM: Copyright 1995, estate of Helmut Schaffrath.
**kern
*ICvox
*Ivox
*M4/4
*k[b-e-a-d-]
*A-:
{8cc
8cc
=1
4.cc
8a-
4a-
8g
8f
=2
4en
4en
4r}
{8f
8f
=3
4.g
8g
4.cc
8b-
=4
2a-
4r}
{8an
8an
=5
4.b-
8b-
4.ff
8ff
=6
4ff
4cc}
{4dd-
4cc
=7
4.a-
8f
4a-
4g
=8
2f
4r}
{8dd-
8cc
=9
8cc
8b-
8an
8b-
8an
8b-
8ff
8ee-
=10
4.ee-
8cc
8a-
8r}
{8dd-
8cc
=11
8cc
8b-
8a-
8g
8f
8e-
8ee-
8dd-
=12
2cc}
{4.aa-
8gg
=13
4gg
4ff
8ff
8gg-
8ff
8ee-
=14
4dd-
4dd-}
{4ff
8ee-
8dd-
=15
8cc
8ee-
8dd-
8b-
4a-
8cc
8b-
=16
2a-
4r}
==
!!!AGN: Trost - Lied
!!!ONB: ESAC (Essen Associative Code) Database: FINK
!!!AMT: simple quadruple
!!!AIN: vox
!!!EED: Helmut Schaffrath
!!!EEV: 1.0
*-
